X: 0211
T: the Countess of Sutherland's Reel - 8x32R
P: the Countess of Sutherland's Reel
C: Geo Jenkins
B: Miss Milligan's Miscellany v.2 #0211
B: Originally Ours v.1 p.181 #MMM-0211
Z: 2019 John Chambers <jc:trillian.mit.edu>
M: 4/4
L: 1/8
R: reel
K: Bb
%
d |:\
"Bb"B2FB "Eb"GB"Bb"FB | "Eb"EB"D/Bb"DB "C/F7"Cccd |\
"Bb"B2FB "Eb/Cm"Ggfe |1 "Bb"df"F7"ce "Bb"dBBd :|2 "Bb"df"F7"ce "Bb"dB Bf/g//a// ||
"Bb"bfdf "Eb/F7"egce | "Bb"dfBd "F7"cF Ff/g//a// |\
"Bb"bfdf "Eb"eg"F7"ce | "Bb"df"F7"ce "Bb"dB Bf/g//a// |
"Bb"bfdf "Eb/F7"egce | "Bb"dfBd "F7"cFFf |\
"Eb"gfga "D/Bb"bgfe |1 "Bb"df"F7"ce "Bb"dBBd :|2 "Bb"df"F7"ce "Bb"dBB2 |]

